X: 43015
T: Willy Taylor's
R: polka
M: 2/4
K: Dmajor
E|D2 G2 G2 FG|A2 d2 d3 e|fgfe dedc|A2 F2 GAGF|D2 G2 G2 FG|A2 d2 d3 e|gedc A2 F2|G2:|
G6 FG|A2 f2 fedc|B2 G2 G3 A|A2 a2 gfed|f2 e2 e2 FG|A2 f2 fedc|B2 G2 G3 A|A2 a2 gfed|f2 d2 d3|

